symbols/web/car_crash/materialsymbolsrounded/car_crash_wght100fill1_40px.svg

<svg xmlns="http://www.w3.org/2000/svg" height="40" width="40"><path d="M29.25 16.875q-2.542 0-4.333-1.792-1.792-1.791-1.792-4.333 0-2.542 1.792-4.312 1.791-1.771 4.333-1.771 2.542 0 4.312 1.771 1.771 1.77 1.771 4.312 0 2.542-1.771 4.333-1.77 1.792-4.312 1.792Zm-.542-5.917q0 .209.167.375.167.167.417.167.208 0 .375-.167.166-.166.166-.375v-3.25q0-.208-.166-.396-.167-.187-.417-.187-.25 0-.396.187-.146.188-.146.396Zm.584 3.584q.291 0 .5-.209.208-.208.25-.5 0-.375-.23-.583-.229-.208-.52-.208-.375 0-.584.208-.208.208-.208.542 0 .333.229.541.229.209.563.209ZM12.25 24.375q.667 0 1.125-.458.458-.459.458-1.167 0-.667-.479-1.146-.479-.479-1.146-.479-.666 0-1.146.479-.479.479-.479 1.188 0 .666.479 1.125.48.458 1.188.458Zm-4.583 6.792q-.209 0-.355-.146-.145-.146-.145-.354V18.708l3.25-9.375q.083-.25.312-.375.229-.125.479-.125h7.917q-.042.25-.063.48-.02.229-.062.52h-7.625l-2.792 7.875h12.959q1.208 1.334 2.812 2.125 1.604.792 3.438 1.167-.667.042-1.146.562-.479.521-.479 1.23 0 .666.479 1.125.479.458 1.187.458.667 0 1.125-.458.459-.459.459-1.125 0-.625-.313-1.084-.312-.458-.812-.708 1.166 0 2.312-.083 1.146-.084 2.229-.459v10.209q0 .208-.145.354-.146.146-.355.146h.167q-.208 0-.354-.146T32 30.667v-2.875H8v2.875q0 .208-.146.354t-.354.146Z"/></svg>

<svg xmlns="http://www.w3.org/2000/svg" height="40" width="40"><path d="M29.25 16.875Q26.708 16.875 24.917 15.083Q23.125 13.292 23.125 10.75Q23.125 8.208 24.917 6.438Q26.708 4.667 29.25 4.667Q31.792 4.667 33.562 6.438Q35.333 8.208 35.333 10.75Q35.333 13.292 33.562 15.083Q31.792 16.875 29.25 16.875ZM28.708 10.958Q28.708 11.167 28.875 11.333Q29.042 11.5 29.292 11.5Q29.5 11.5 29.667 11.333Q29.833 11.167 29.833 10.958V7.708Q29.833 7.5 29.667 7.312Q29.5 7.125 29.25 7.125Q29 7.125 28.854 7.312Q28.708 7.5 28.708 7.708ZM29.292 14.542Q29.583 14.542 29.792 14.333Q30 14.125 30.042 13.833Q30.042 13.458 29.812 13.25Q29.583 13.042 29.292 13.042Q28.917 13.042 28.708 13.25Q28.5 13.458 28.5 13.792Q28.5 14.125 28.729 14.333Q28.958 14.542 29.292 14.542ZM12.25 24.375Q12.917 24.375 13.375 23.917Q13.833 23.458 13.833 22.75Q13.833 22.083 13.354 21.604Q12.875 21.125 12.208 21.125Q11.542 21.125 11.062 21.604Q10.583 22.083 10.583 22.792Q10.583 23.458 11.062 23.917Q11.542 24.375 12.25 24.375ZM7.667 31.167Q7.458 31.167 7.312 31.021Q7.167 30.875 7.167 30.667V18.708L10.417 9.333Q10.5 9.083 10.729 8.958Q10.958 8.833 11.208 8.833H19.125Q19.083 9.083 19.062 9.313Q19.042 9.542 19 9.833H11.375L8.583 17.708H21.542Q22.75 19.042 24.354 19.833Q25.958 20.625 27.792 21Q27.125 21.042 26.646 21.562Q26.167 22.083 26.167 22.792Q26.167 23.458 26.646 23.917Q27.125 24.375 27.833 24.375Q28.5 24.375 28.958 23.917Q29.417 23.458 29.417 22.792Q29.417 22.167 29.104 21.708Q28.792 21.25 28.292 21Q29.458 21 30.604 20.917Q31.75 20.833 32.833 20.458V30.667Q32.833 30.875 32.688 31.021Q32.542 31.167 32.333 31.167H32.5Q32.292 31.167 32.146 31.021Q32 30.875 32 30.667V27.792H8V30.667Q8 30.875 7.854 31.021Q7.708 31.167 7.5 31.167Z"/></svg>
